assets/Old key/Flat/old_key_flat.svg

<svg width="32" height="32" viewBox="0 0 32 32" fill="none" xmlns="http://www.w3.org/2000/svg">
<path d="M6.38665 27.3134L8.73665 29.6634C9.19665 30.1234 9.97665 30.0734 10.4966 29.5534C10.4966 29.5534 10.7766 29.2734 10.8066 29.0934C10.9266 28.2834 10.3066 27.5634 10.9366 26.9234C11.5766 26.2834 12.4166 26.9634 13.1066 26.7934C13.2866 26.7434 13.6066 26.4534 13.6066 26.4534C14.1266 25.9334 14.1766 25.1534 13.7166 24.6934L11.3666 22.3434C10.9066 21.8834 10.1266 21.9334 9.60665 22.4534L6.50665 25.5534C5.97665 26.0734 5.92665 26.8634 6.38665 27.3134Z" fill="#FF9F2E"/>
<path d="M15.5267 4.46339C18.1467 1.84339 22.2767 1.16339 25.3967 3.15339C29.7467 5.93339 30.2067 11.8534 26.7667 15.2934C24.3247 17.7416 20.6278 18.2168 17.6962 16.7238L6.33666 28.0834C5.48666 28.9234 4.23666 29.2834 3.27666 28.8334C1.69666 28.0934 1.60666 26.0134 2.87666 24.7434C2.87666 24.7434 3.92666 23.7134 4.55666 23.0634C4.70712 22.9046 8.0998 19.5175 9.34931 18.2701C9.59459 18.0252 9.75728 17.8628 9.79666 17.8234C10.1778 17.4423 13.5371 14.0987 14.2951 13.3442C14.0424 12.8704 13.8244 12.3568 13.6467 11.8034C12.8167 9.21339 13.6067 6.38339 15.5267 4.46339ZM18.3867 7.11339C17.4267 8.07339 17.0267 9.49339 17.4467 10.7834C18.4567 13.9134 22.0467 14.5034 24.0067 12.5334C25.7267 10.8134 25.4967 7.85339 23.3167 6.46339C21.7667 5.46339 19.6967 5.80339 18.3867 7.11339Z" fill="#F9C23C"/>
<path d="M12.9697 12.9697C13.2626 12.6768 13.7374 12.6768 14.0303 12.9697L18.0303 16.9697C18.3232 17.2626 18.3232 17.7374 18.0303 18.0303C17.7996 18.2611 17.4559 18.31 17.1772 18.1772C17.31 18.4559 17.2611 18.7996 17.0303 19.0303C16.7374 19.3232 16.2626 19.3232 15.9697 19.0303L11.9697 15.0303C11.6768 14.7374 11.6768 14.2626 11.9697 13.9697C12.2004 13.7389 12.5441 13.69 12.8228 13.8228C12.69 13.5441 12.7389 13.2004 12.9697 12.9697Z" fill="#FFB02E"/>
</svg>

<svg xmlns="http://www.w3.org/2000/svg" width="32" height="32" fill="none"><path fill="#FF9F2E" d="m6.387 27.313 2.35 2.35c.46.46 1.24.41 1.76-.11 0 0 .28-.28.31-.46.12-.81-.5-1.53.13-2.17.64-.64 1.48.04 2.17-.13.18-.05.5-.34.5-.34.52-.52.57-1.3.11-1.76l-2.35-2.35c-.46-.46-1.24-.41-1.76.11l-3.1 3.1c-.53.52-.58 1.31-.12 1.76Z"/><path fill="#F9C23C" d="M15.527 4.463c2.62-2.62 6.75-3.3 9.87-1.31 4.35 2.78 4.81 8.7 1.37 12.14-2.442 2.449-6.14 2.924-9.07 1.43l-11.36 11.36c-.85.84-2.1 1.2-3.06.75-1.58-.74-1.67-2.82-.4-4.09 0 0 1.05-1.03 1.68-1.68.15-.158 3.543-3.546 4.792-4.793l.448-.447c.38-.38 3.74-3.724 4.498-4.479a9.33 9.33 0 0 1-.648-1.54c-.83-2.59-.04-5.42 1.88-7.34Zm2.86 2.65c-.96.96-1.36 2.38-.94 3.67 1.01 3.13 4.6 3.72 6.56 1.75a3.913 3.913 0 0 0-.69-6.07c-1.55-1-3.62-.66-4.93.65Z"/><path fill="#FFB02E" d="M12.97 12.97a.75.75 0 0 1 1.06 0l4 4a.75.75 0 0 1-.853 1.207.75.75 0 0 1-1.207.853l-4-4a.75.75 0 0 1 .853-1.207.75.75 0 0 1 .147-.853Z"/></svg>
